X:1
T:Title
%%score 1 2 3
L:1/8
M:3/2
K:C
V:1 treble nm="Part_1"
V:2 treble-8 nm="Part_2"
V:3 treble-8 nm="Part_3"
V:1
 D12 | F12 | C4 D2 F4 E2 | D2 G2 F2 E3 DDC | D6 C2 C2 B,2 | D8 z4 | D4 F4 E2 D2 | D4 C4 D4 | %8
 F6 D2 E4 | F2 A3 G G2 F2 E2 | G8 D4- | D2 E2 F4 G4 | E2 D4 C4 B,2 | C8 z4 | D8 F4- | F4 G8 | %16
 F2 A4 G2 E2 F2 | G4 F2 D2 F2 E2 | F4 F6 E2 | C2 D2 E4 D4 | F2 D2 C2 C4 B,2 | C8 z4 | D6 E2 F4 | %23
 F4 C4 E2 F2 | G4 F4 E2 D2 | C2 F4 E2 G2 A2 | F2 E3 D D4 C2 |[M:4/2] D16 ||[M:3/2] C8 D2 E2 | %29
 F4 F4 F2 G2 | A4 G6 F2 | F6 D2 E4 | F12 | z4 z4 E4 | F6 F2 F4 | F2 F2 F4 F4 | G6 F2 F4 | %37
 D4 F4 E3 D | C2 D2 F4 E4 | D4 z2 E2 C2 B,2 |[M:4/2] D16 |] %41
V:2
 A12 | c12 | F4 A6 G2 | B2 d2 c2 c4 B2 | A4 G8 | A12- | A8 E4 | F2 A4 c2 B4 | c8 c4 | %9
 A2 d2 c2 B2 d2 c2 | d8 B4 | z2 c2 c2 A2 B2 G2 | z2 B2 A2 G4 F2 | G4 G4 z4 | B8 c4 | d4 G4 c4 | %16
 A2 d2 c2 B2 c4 | z2 B2 A4 B4 | c8 z4 | F2 A2 G2 E2 A4 | z4 A2 G2 A2 FE | G12 | B8 c4 | %23
 z2 F2 F4 c4 | d4 c4 B4 | z2 c2 c4 B2 A2- | A2 c2 B2 A4 G2 |[M:4/2] A16 ||[M:3/2] C4 F4 B4 | %29
 A4 c8 | F4 E4 G4 | F4 C8 | c8 c4 | z2 c2 B2 A2 c3 B | A8 d4 | c8 c4 | B6 c2 d4 | c4 z2 A2 B4 | %38
 A6 B2 c4 | A2 B3 A A2 G2 F2 |[M:4/2] A16 |] %41
V:3
 D12 | A12- | A4 F4 D2 E2 | G4 A4 G4 | F4 E8 | D12- | D8 C4 | D4 A4 G4 | F8 C4 | D4 F2 G2 A4 | %10
 G8 G4 | F8 E4 | G4 F2 E2 D4 | C12 | G8 F4 | D4 C8 | D4 F2 G2 A4 | E4 F4 G4 | F12 | F4 G4 F4- | %20
 F4 E2 C2 D4 | C12 | G8 F4 | A8 A4 | B4 A4 G4 | A8 E2 F2 | D2 A2 G2 D2 E4 |[M:4/2] D16 || %28
[M:3/2] c4 A4 G4 | F8 A4 | c8 B4 | A4 G8 | F12 | E4 D4 C4 | D8 D4 | A8 A4 | G4 E4 D4 | F4 A4 G4 | %38
 F8 C4 | D4 F4 E4 |[M:4/2] D16 |] %41

